X: 20
T: Pleasures of Salisbury, The
M: 6/8
G: Pleasures of Salisbury
L: 1/8
K: D
D|FGA Bcd|efg fdA|BAB Acd|AGF E2D|
FGA Bcd|efg fdA|BAB Agf|edc d2:|
|:(c/d/)|ecA ecA|fdB fdB|Bcd AGF|GEE E2E|
FED GFE|AGF BAG|Bgf edc|ddd d3:|]
